X:47
T:Gander in the Pratie Hole
Z: id:dc-jig-39
M:6/8
L:1/8
K:D Major
E|FAD FAD|GFG EFG|FAD FAD|GED D2E|!
FAD FAD|GFG EFG|fed ecA|GED D2:|!
A|Add ded|=cAB cAG|Add ded|=cAB c2A|!
Add ded|=cAB cde|fed ecA|GED D2:|!

